src/general/components/img/3w.svg

<svg height="30" viewBox="0 0 30 30" width="30" xmlns="http://www.w3.org/2000/svg"><path d="m7.34053159 15.3449275c-.27057141-.3246376-.77306118-.3652174-1.08228565-.0811594s-.34787753.8115942-.07730612 1.1362319c0 0 .03865306.0405797.03865306.0405797l4.67702012 5.315942c.1546123.1623189.3478775.2434783.5411428.2434783.1932653 0 .3865306-.0811594.5411429-.2434783l11.7891829-12.37681156c.3092245-.32463768.3092245-.8115942 0-1.13623188-.3092244-.32463768-.7730611-.32463768-1.0822856 0l-11.2093871 11.76811594z" fill="#fff" stroke="#fff" stroke-width="1.338462"/></svg>

<?xml version="1.0" encoding="UTF-8"?>
<svg width="30px" height="30px" viewBox="0 0 30 30" version="1.1" xmlns="http://www.w3.org/2000/svg" xmlns:xlink="http://www.w3.org/1999/xlink">
    <!-- Generator: Sketch 46.2 (44496) - http://www.bohemiancoding.com/sketch -->
    <title>02</title>
    <desc>Created with Sketch.</desc>
    <defs></defs>
    <g id="ICO" stroke="none" stroke-width="1" fill="none" fill-rule="evenodd">
        <g id="02" stroke="#FFFFFF" stroke-width="1.33846154" fill="#FFFFFF" fill-rule="nonzero">
            <path d="M7.34053159,15.3449275 C7.06996018,15.0202899 6.56747041,14.9797101 6.25824594,15.2637681 C5.94902147,15.5478261 5.91036841,16.0753623 6.18093982,16.4 C6.18093982,16.4 6.21959288,16.4405797 6.21959288,16.4405797 L10.896613,21.7565217 C11.0512253,21.9188406 11.2444905,22 11.4377558,22 L11.4377558,22 C11.6310211,22 11.8242864,21.9188406 11.9788987,21.7565217 L23.7680816,9.37971014 C24.0773061,9.05507246 24.0773061,8.56811594 23.7680816,8.24347826 C23.4588572,7.91884058 22.9950205,7.91884058 22.685796,8.24347826 L11.4764089,20.0115942 L7.34053159,15.3449275 Z" id="Shape"></path>
        </g>
    </g>
</svg>
